X: 56
T: The Galway Hornpipe
M:4/4
L:1/8
R:hornpipe
K:D
FE| "D"D2FA dAFD | "A"CDEF "G"G2FE |"D" D2FA dcdf |"A" ed cB AG FE |
"D"D2FA dAFD |"A" CDEF "G"G2FG | "D"AdcB AG FE | D2 F2 D2 :|
|: de | "D"fefg fedc |"G" BABc B2cd | "A"edef edcB | (3Ace (3aec A2 (3ABc |
"D"dcde fdAF | "G"GFGA BdcB | "D"AdcB AG FE | D2 F2 D2  :|


